X: 38654
T: Storrar's, The
R: barndance
M: 4/4
K: Amajor
ae|:c2A2AcBA|G2E2EGFE|E2B2BcBA|G2E2E2ae|
c2A2AcBA|GABc defg|aecA FdBd|1 c2A2A2ae:|2 c2A2A2cd||
|:e2ce aece|f2c2c2cd|e2ce aece|d2B2B2cd|
e2ce aece|fefg aece|dcBA FdBd|1 c2A2A2cd:|2 c2A2A2||

